usr/share/icons/biglinux-icons-material-dark/16/devices/input-keyboard.svg

<svg width="16" height="16" version="1.1" xmlns="http://www.w3.org/2000/svg">
 <defs>
  <style id="current-color-scheme" type="text/css">.ColorScheme-Text { color:#dedede; }</style>
 </defs>
 <path d="m1 2c-0.554 0-1 0.446-1 1v9c0 0.554 0.446 1 1 1h14c0.554 0 1-0.446 1-1v-9c0-0.554-0.446-1-1-1zm0 1h14v9h-14zm1 2v1h1v-1zm2 0v1h1v-1zm2 0v1h1v-1zm2 0v1h1v-1zm2 0v1h1v-1zm2 0v1h2v-1zm-10 2v1h2v-1zm3 0v1h1v-1zm2 0v1h1v-1zm2 0v1h1v-1zm2 0v1h3v-1zm-9 2v1h2v-1zm3 0v1h6v-1zm7 0v1h2v-1z" fill="#dedede" stroke-linecap="round" stroke-linejoin="round" style="paint-order:stroke fill markers"/>
</svg>

<svg xmlns="http://www.w3.org/2000/svg" width="16" height="16">
<style id="current-color-scheme" type="text/css">
.ColorScheme-Text{color:#dedede}
</style>
<path d="M1 2c-.554 0-1 .446-1 1v9c0 .554.446 1 1 1h14c.554 0 1-.446 1-1V3c0-.554-.446-1-1-1zm0 1h14v9H1zm1 2v1h1V5zm2 0v1h1V5zm2 0v1h1V5zm2 0v1h1V5zm2 0v1h1V5zm2 0v1h2V5zM2 7v1h2V7zm3 0v1h1V7zm2 0v1h1V7zm2 0v1h1V7zm2 0v1h3V7zM2 9v1h2V9zm3 0v1h6V9zm7 0v1h2V9z" class="ColorScheme-Text" style="fill:currentColor"/>
</svg>
